arkscan/icons/atomic_wallet.svg

<svg viewBox="0 0 19 18" fill="none" xmlns="http://www.w3.org/2000/svg">
  <path fill-rule="evenodd" clip-rule="evenodd"
    d="M0 18L5.63803 2.80748C6.35343 1.03374 7.68724 0.0296765 9.46031 0.000650212V0L9.49996 0.000162661L9.53969 0V0.000650212C11.3128 0.0296765 12.6466 1.03374 13.362 2.80748L19 18L15.5088 16.8058L10.6925 3.82771C10.3994 3.10994 10.0608 2.8515 9.49996 2.84012C8.93908 2.8515 8.60063 3.10994 8.30752 3.82771L3.49126 16.8058L0 18ZM11.9532 12.215C11.9532 13.5421 10.8697 14.6179 9.53309 14.6179C8.19656 14.6179 7.11306 13.5421 7.11306 12.215C7.11306 10.8879 8.19656 9.81219 9.53309 9.81219C10.8697 9.81219 11.9532 10.8879 11.9532 12.215Z"
    fill="#3692FE" />
</svg>

<svg viewBox="0 0 19 18" fill="none" xmlns="http://www.w3.org/2000/svg"><path fill-rule="evenodd" clip-rule="evenodd" d="M0 18 5.638 2.807C6.353 1.034 7.688.03 9.46.001V0h.08c1.773.03 3.107 1.034 3.822 2.807L19 18l-3.491-1.194-4.816-12.978c-.294-.718-.632-.976-1.193-.988-.56.012-.9.27-1.192.988L3.49 16.806 0 18Zm11.953-5.785a2.412 2.412 0 0 1-2.42 2.403 2.412 2.412 0 0 1-2.42-2.403 2.411 2.411 0 0 1 2.42-2.403 2.411 2.411 0 0 1 2.42 2.403Z" fill="#3692FE"/></svg>
